X:904
T:Dark Island, The
C:Joe Buchanan's Scottish Tome - Page 500.3
I:500 3
Z:Jo Wegstein
C:Iain MacLaughlin
R:Waltz
L:1/8
M:3/4
K:Gmaj
E2 | "Am"(A2> E2 A2) | "Em"(G2> A2 G2) | "C"(E2> D2)C2 | "G"D4 (GA) | (B2> A2) G2 | "Em"(G2> d2) D2 | "G"(B2> d2) B2 | "D"A4 DE |
"Am"(A2> E2 A2) | "Em"(G2> A2 G2) | "C"(E2> D2) C2 | "G"D4 (GA) | B2> (D2 dB) | "D7"A2> (D2 BA) | "G"G6 | G4 (Bc) ||
"G"d2> D2 D2 | (B2> A2 G2) | "C"(E2> C2) E2 | "G"D4 (GA) | (B2> A2 G2) | "Em"(G2> d2) D2 | "G"(B2> d2) B2 | "D"A4 (DE) |
"Am"(A2> E2 A2) | "Em"(G2> A2 G2) | "C"(E2> D2) C2 | "G"D4 (GA) | B2> (D2 dB) | "D7"A2> (D2 BA) | "G"G6 | "G"G4 |]

